images/Instagram.svg

<svg viewBox="0 0 25 24" fill="none" xmlns="http://www.w3.org/2000/svg">
    <path d="M16.6799 7.00005C16.6799 6.44776 17.1281 6.00005 17.681 6.00005C18.2339 6.00005 18.6821 6.44776 18.6821 7.00005C18.6821 7.55233 18.2339 8.00005 17.681 8.00005C17.1281 8.00005 16.6799 7.55233 16.6799 7.00005Z" fill="black"/>
    <path fill-rule="evenodd" clip-rule="evenodd" d="M12.6754 7.25005C10.0492 7.25005 7.92017 9.37669 7.92017 12C7.92017 14.6234 10.0492 16.75 12.6754 16.75C15.3017 16.75 17.4307 14.6234 17.4307 12C17.4307 9.37669 15.3017 7.25005 12.6754 7.25005ZM9.42184 12C9.42184 10.2051 10.8785 8.75005 12.6754 8.75005C14.4723 8.75005 15.929 10.2051 15.929 12C15.929 13.795 14.4723 15.25 12.6754 15.25C10.8785 15.25 9.42184 13.795 9.42184 12Z" fill="black"/>
    <path fill-rule="evenodd" clip-rule="evenodd" d="M17.9395 2.83306C14.4691 2.44562 10.8818 2.44562 7.41138 2.83306C5.3971 3.05794 3.77096 4.64295 3.53415 6.66548C3.11915 10.2098 3.11915 13.7903 3.53415 17.3346C3.77096 19.3571 5.3971 20.9422 7.41138 21.167C10.8818 21.5545 14.4691 21.5545 17.9395 21.167C19.9538 20.9422 21.5799 19.3571 21.8167 17.3346C22.2317 13.7903 22.2317 10.2098 21.8167 6.66548C21.5799 4.64295 19.9538 3.05794 17.9395 2.83306ZM7.57817 4.32378C10.9377 3.94871 14.4132 3.94871 17.7727 4.32378C19.1043 4.47244 20.171 5.52205 20.3253 6.83973C20.7267 10.2683 20.7267 13.7318 20.3253 17.1604C20.171 18.478 19.1043 19.5277 17.7727 19.6763C14.4132 20.0514 10.9377 20.0514 7.57818 19.6763C6.2466 19.5277 5.17993 18.478 5.02564 17.1604C4.6242 13.7318 4.6242 10.2683 5.02564 6.83973C5.17993 5.52205 6.24659 4.47244 7.57817 4.32378Z" fill="black"/>
</svg>

<svg viewBox="0 0 25 24" fill="none" xmlns="http://www.w3.org/2000/svg"><path d="M16.68 7a1 1 0 1 1 2.001.001A1 1 0 0 1 16.68 7z" fill="#000"/><path fill-rule="evenodd" clip-rule="evenodd" d="M12.675 7.25A4.753 4.753 0 0 0 7.92 12a4.753 4.753 0 0 0 4.755 4.75A4.753 4.753 0 0 0 17.431 12a4.753 4.753 0 0 0-4.756-4.75zM9.422 12a3.252 3.252 0 0 1 3.253-3.25A3.252 3.252 0 0 1 15.93 12a3.252 3.252 0 0 1-3.254 3.25A3.252 3.252 0 0 1 9.422 12z" fill="#000"/><path fill-rule="evenodd" clip-rule="evenodd" d="M17.94 2.833a47.826 47.826 0 0 0-10.529 0c-2.014.225-3.64 1.81-3.877 3.832a45.87 45.87 0 0 0 0 10.67c.237 2.022 1.863 3.607 3.877 3.832 3.47.387 7.058.387 10.528 0 2.015-.225 3.64-1.81 3.878-3.832a45.87 45.87 0 0 0 0-10.67c-.237-2.022-1.863-3.607-3.878-3.832zM7.577 4.323a46.322 46.322 0 0 1 10.195 0c1.331.15 2.398 1.199 2.552 2.517a44.377 44.377 0 0 1 0 10.32c-.154 1.318-1.22 2.368-2.552 2.516-3.36.375-6.835.375-10.195 0-1.331-.148-2.398-1.198-2.552-2.516a44.373 44.373 0 0 1 0-10.32c.154-1.318 1.22-2.368 2.552-2.516z" fill="#000"/></svg>
